X:158
T:Jimmy Doyle's #2
R:polka
D:Johnny O'Leary
Z:id:hn-polka-158
M:2/4
L:1/8
K:D
FA D>E | FA BA | FA D>E | FE ED/E/ |
FG/A/ D>E | FA BA | FG/A/ Bc | ed d2 :|
|: DF/A/ BA | dc/d/ BA | FA D>E | FE EF/E/ |
DF/A/ BA | dA BA | FG/A/ Bc | ed d2 :|

